public/images/tickets/pink-paw-right.svg

<svg width="55" height="90" viewBox="0 0 55 90" fill="none" xmlns="http://www.w3.org/2000/svg">
<path d="M23.0472 57.9626L24.8864 55.9746C25.692 55.1039 26.1178 53.9484 26.0699 52.7632C26.041 52.0476 26.1847 51.3356 26.4888 50.6872L26.6268 50.393C27.2512 49.062 28.3582 48.0182 29.7234 47.4729L30.2608 47.2583C31.0208 46.9547 31.8267 46.7819 32.6444 46.747L36.9227 46.5646C37.1874 46.5533 37.4504 46.5161 37.7078 46.4534C38.5548 46.2471 39.3124 45.7728 39.8681 45.1012L41.2084 43.4811C42.193 42.2909 43.4307 41.3354 44.8314 40.6841L45.8775 40.1978C47.323 39.5257 48.8923 39.1611 50.486 39.1269C52.4095 39.0857 54.3126 39.5269 56.0216 40.4103L56.292 40.5501C57.9977 41.4318 59.881 41.9157 61.8004 41.9654L63.3013 42.0043C64.7396 42.0415 66.1434 42.4524 67.3747 43.1966C68.443 43.8423 69.3517 44.7208 70.033 45.7668L74.0529 51.9377C75.1317 53.5938 76.0305 55.3603 76.7341 57.2073L78.2247 61.1203C78.7271 62.4394 78.9246 63.8723 78.8054 65.2788C78.5371 68.4431 76.6678 71.2934 73.8547 72.767C72.6428 73.4018 71.3057 73.7612 69.9388 73.8195L66.1028 73.983L63.8305 74.2774C61.8885 74.5291 60.0111 75.1435 58.2961 76.0887C56.1928 77.2478 54.385 78.8761 53.013 80.8471L51.9673 82.3493C51.4012 83.1625 50.7607 83.9213 50.0541 84.6159L49.5208 85.1401C47.427 87.1981 44.728 88.5296 41.8208 88.9387L41.7568 88.9477C40.9354 89.0633 40.1049 89.1002 39.2765 89.0579C36.1768 88.8997 33.2353 87.6406 30.9812 85.507L29.2647 83.8823C28.0845 82.7652 27.0491 81.5044 26.1826 80.1296L22.62 74.4772L21.2217 71.8253C19.9703 69.452 19.5532 66.7269 20.0374 64.0879C20.2227 63.078 20.5373 62.0961 20.9734 61.1664L21.1651 60.7579C21.645 59.7349 22.2798 58.7921 23.0472 57.9626Z" fill="#FFACD4"/>
<path d="M57.446 36.47L58.6016 37.5922C59.9259 38.8782 61.8181 39.3935 63.6117 38.9567C64.3144 38.7856 64.9753 38.4742 65.5547 38.0413L67.1199 36.8717C67.8204 36.3482 68.2843 35.5679 68.4094 34.7024C68.5656 33.6226 68.1774 32.5355 67.3726 31.7988L66.4237 30.9302C65.8695 30.423 65.4206 29.8117 65.1023 29.1312L64.3378 27.4961L63.0049 25.3813C62.5965 24.7333 62.1249 24.1275 61.5969 23.5726C60.0207 21.9159 57.9894 20.7627 55.759 20.2582L55.3868 20.174C54.3133 20.0867 53.3189 20.7435 52.9778 21.765L52.296 23.8067C51.9927 24.7151 51.952 25.6906 52.1786 26.6211L52.5928 28.322C52.9023 29.5925 53.4326 30.7988 54.1596 31.8858L56.3314 35.1327C56.6549 35.6164 57.0285 36.0646 57.446 36.47Z" fill="#FFACD4"/>
<path d="M51.457 13.7606L53.2058 16.203C53.6995 16.8926 53.4696 17.8595 52.7183 18.253C52.2857 18.4796 51.766 18.4638 51.348 18.2111L49.7585 17.2505C49.4009 17.0344 49.0739 16.7715 48.7859 16.4689L46.0086 13.5498L44 11.5269C43.8883 11.4144 43.9886 11.2251 44.1444 11.2544L48.9366 12.154C49.9524 12.3447 50.8553 12.9203 51.457 13.7606Z" fill="#FFACD4"/>
<path d="M34.6549 18.9307L35.159 16.7488C35.4113 15.6567 36.3616 14.8674 37.4814 14.8196C38.159 14.7907 38.819 15.0392 39.3094 15.5076L43.9908 19.98L47.6055 24.2295C48.5361 25.3235 49.2647 26.5743 49.7575 27.9234L50.4174 29.7303C50.672 30.4272 50.7496 31.1763 50.6435 31.9105C50.463 33.1586 49.7654 34.273 48.7217 34.9806L48.2912 35.2725C46.9947 36.1515 45.392 36.4541 43.8642 36.1086L43.8023 36.0946C42.9236 35.8958 42.1032 35.4954 41.4059 34.925L40.234 33.9663C38.7589 32.7597 37.5862 31.225 36.8096 29.4847L36.3238 28.3962C35.6849 26.9647 35.2441 25.453 35.0134 23.9025L34.5746 20.954C34.4744 20.2805 34.5017 19.5942 34.6549 18.9307Z" fill="#FFACD4"/>
<path d="M34.159 8.44851L34.3672 11.3025C34.43 12.1641 33.8612 12.945 33.0219 13.1494C32.2226 13.3441 31.3946 12.9619 31.0243 12.2273L28.9799 8.17222C28.4604 7.14184 27.7098 6.24552 26.7865 5.5533L22.7083 2.4956C22.4561 2.30647 22.6406 1.90707 22.9481 1.97663L29.5112 3.46118C30.1418 3.60383 30.7454 3.84703 31.2987 4.18145L31.6866 4.41588C33.1158 5.27968 34.0375 6.78293 34.159 8.44851Z" fill="#FFACD4"/>
<path d="M22.7306 32.7022L21.9244 30.8957C21.3946 29.7087 20.9733 28.4762 20.6658 27.2133C20.0684 24.7604 19.9085 22.2055 20.19 19.6966C20.3519 18.2528 21.8604 17.3603 23.1975 17.9286L24.3277 18.4089C27.0789 19.578 29.5197 21.3723 31.4566 23.6493C32.2808 24.6183 33.0069 25.6667 33.6242 26.7791L35.8895 30.8614L37.1373 33.2278C37.761 34.4106 37.9011 35.7895 37.528 37.0736C37.0759 38.63 35.9186 39.8835 34.4032 40.4584L34.3508 40.4782C33.1189 40.9455 31.7566 40.9346 30.5323 40.4475L29.5065 40.0394C28.3868 39.594 27.3805 38.9047 26.5605 38.0218L25.4729 36.8507C24.3372 35.6278 23.4107 34.2262 22.7306 32.7022Z" fill="#FFACD4"/>
<path d="M10.19 28.9534L10.7924 27.9695C11.0218 27.5948 11.3902 27.326 11.8172 27.2221C12.1186 27.1487 12.4345 27.161 12.7293 27.2578L14.8929 27.9679C16.5794 28.5214 18.0804 29.5297 19.2305 30.8818L20.4789 32.3494C21.2616 33.2696 21.9408 34.2731 22.5043 35.3417L24.3569 38.8552C24.7751 39.6484 25.0939 40.4901 25.3061 41.3613L25.9204 43.8835C26.1114 44.6676 26.0286 45.4935 25.6859 46.2241C25.0586 47.5612 23.6669 48.3682 22.1949 48.2485L21.7896 48.2156C21.2592 48.1725 20.7422 48.0272 20.2671 47.7877L17.3593 46.322C16.6016 45.94 15.8815 45.4879 15.2082 44.9715L14.7974 44.6564C13.7952 43.8875 12.9374 42.947 12.2639 41.8783C11.6488 40.9025 11.196 39.8334 10.9231 38.7126L10.516 37.0411L9.86753 34.3787C9.75385 33.9119 9.67915 33.4365 9.6442 32.9574L9.54564 31.6063C9.4778 30.6764 9.70316 29.7486 10.19 28.9534Z" fill="#FFACD4"/>
<path d="M5.37468 50.8895L5.64529 49.1904C6.0428 46.6944 8.46636 45.0534 10.9315 45.611C12.0642 45.8672 13.0549 46.5733 13.6741 47.5557L16.8676 53.3106L18.763 57.5577C19.2339 58.6127 19.2746 59.8097 18.8765 60.8942L18.5735 61.72C18.2532 62.5925 17.5193 63.2479 16.6163 63.4679C15.7524 63.6783 14.84 63.4639 14.1602 62.8909L10.2677 59.6099C9.57718 59.0278 8.95009 58.3744 8.39689 57.6605L6.47252 55.1772C5.99271 54.558 5.6489 53.8446 5.46354 53.0835C5.28863 52.3653 5.25842 51.6195 5.37468 50.8895Z" fill="#FFACD4"/>
<path d="M1.66574 32.689L3.31077 30.0021C3.43798 29.7944 3.75857 29.8995 3.73799 30.1423L3.44691 33.5755C3.38786 34.2721 3.4421 34.9736 3.60752 35.6529C3.80329 36.4567 4.15144 37.2155 4.63308 37.8882L5.39443 38.9515C5.60573 39.2466 5.75847 39.5795 5.84436 39.9322L5.94285 40.3366C6.13745 41.1356 5.86277 41.976 5.23394 42.5059C4.64251 43.0043 3.83009 43.1496 3.10261 42.887C2.59491 42.7037 2.17394 42.3374 1.92218 41.86L1.47231 41.0068C1.29376 40.6682 1.15766 40.3088 1.06708 39.9369L0.741008 38.5981C0.50534 37.6304 0.457467 36.6266 0.599983 35.6409C0.751233 34.5948 1.11385 33.5905 1.66574 32.689Z" fill="#FFACD4"/>
<path d="M4.26422 14.298L5.95965 10.204C6.04109 10.0074 6.32647 10.0294 6.37683 10.2362L6.62704 11.2635L6.95266 13.8013C7.17414 15.5275 7.89235 17.1522 9.01997 18.4779C9.53956 19.0887 9.97501 19.7664 10.3147 20.4929L11.0494 22.0641L11.6299 23.3055C12.0229 24.1459 11.803 25.1454 11.0935 25.7432C10.6023 26.1572 9.94548 26.3172 9.31888 26.1755L8.71887 26.0397C8.10904 25.9018 7.55116 25.5929 7.11061 25.1492L6.35068 24.3839C5.72973 23.7585 5.23256 23.0214 4.88533 22.2114L4.30472 20.857C4.1204 20.427 3.97212 19.9825 3.86142 19.5279C3.43718 17.786 3.57825 15.9543 4.26422 14.298Z" fill="#FFACD4"/>
<path d="M12.1645 4.56992L10.8975 1.24392C10.7863 0.951995 11.1279 0.697532 11.3758 0.887666C12.7537 1.94472 14.0405 3.11573 15.2223 4.38833L17.4946 6.83508L20.2438 10.3829C20.7136 10.9891 20.9169 11.7601 20.8071 12.519L20.7768 12.7287C20.63 13.744 19.8808 14.5683 18.884 14.811C18.1446 14.9911 17.3634 14.8265 16.7595 14.3632L15.814 13.638C15.1337 13.1161 14.599 12.4281 14.2612 11.6401L13.7273 10.3947C13.505 9.87617 13.3262 9.3401 13.1927 8.79199L12.1645 4.56992Z" fill="#FFACD4"/>
</svg>

<svg xmlns="http://www.w3.org/2000/svg" width="55" height="90" fill="none"><path fill="#FFACD4" d="m23.047 57.963 1.84-1.988a4.46 4.46 0 0 0 1.183-3.212 4.47 4.47 0 0 1 .419-2.076l.138-.294a5.8 5.8 0 0 1 3.096-2.92l.538-.215a7.3 7.3 0 0 1 2.383-.511l4.279-.182a4.05 4.05 0 0 0 2.945-1.464l1.34-1.62a10.4 10.4 0 0 1 3.623-2.797l1.046-.486a11.52 11.52 0 0 1 10.145.212l.27.14a12.7 12.7 0 0 0 5.508 1.415l1.501.04a8.29 8.29 0 0 1 6.732 3.762l4.02 6.17a27.8 27.8 0 0 1 2.681 5.27l1.49 3.913a9.5 9.5 0 0 1 .581 4.159c-.268 3.164-2.137 6.014-4.95 7.488a9.3 9.3 0 0 1-3.916 1.053l-3.836.163-2.272.294a15.63 15.63 0 0 0-10.818 6.57l-1.046 1.502a16 16 0 0 1-1.913 2.267l-.533.524a13.7 13.7 0 0 1-7.7 3.799l-.064.009a13.03 13.03 0 0 1-10.776-3.441l-1.716-1.625a19.4 19.4 0 0 1-3.082-3.752l-3.563-5.653-1.398-2.652a11.96 11.96 0 0 1-.249-10.659l.192-.408a11 11 0 0 1 1.882-2.795M57.446 36.47l1.156 1.122a5.37 5.37 0 0 0 6.953.45l1.565-1.17a3.297 3.297 0 0 0 .253-5.073l-.95-.869a5.7 5.7 0 0 1-1.32-1.799l-.765-1.635-1.333-2.115a11.58 11.58 0 0 0-7.246-5.123l-.372-.084a2.34 2.34 0 0 0-2.41 1.591l-.681 2.042a5.1 5.1 0 0 0-.117 2.814l.414 1.701c.31 1.27.84 2.477 1.567 3.564l2.171 3.247a8.3 8.3 0 0 0 1.115 1.337M51.457 13.76l1.749 2.443a1.396 1.396 0 0 1-1.858 2.008l-1.59-.96a4.7 4.7 0 0 1-.972-.782l-2.777-2.92L44 11.528a.161.161 0 0 1 .144-.273l4.793.9a4 4 0 0 1 2.52 1.607M34.655 18.93l.504-2.181a2.493 2.493 0 0 1 4.15-1.241l4.682 4.472 3.614 4.25a12.1 12.1 0 0 1 2.153 3.693l.66 1.807a4.484 4.484 0 0 1-1.696 5.25l-.43.293a5.66 5.66 0 0 1-4.428.836l-.062-.014a5.8 5.8 0 0 1-2.396-1.17l-1.172-.959a12.2 12.2 0 0 1-3.424-4.481l-.486-1.089a17.3 17.3 0 0 1-1.31-4.494l-.44-2.948c-.1-.674-.072-1.36.08-2.023M34.159 8.449l.208 2.854a1.769 1.769 0 0 1-3.343.924L28.98 8.172a7.5 7.5 0 0 0-2.193-2.619l-4.079-3.057c-.252-.19-.067-.589.24-.52l6.563 1.485c.63.143 1.234.386 1.788.72l.388.235a5.15 5.15 0 0 1 2.472 4.033M22.73 32.702l-.806-1.806a21.53 21.53 0 0 1-1.734-11.2c.162-1.443 1.67-2.336 3.008-1.767l1.13.48a19.24 19.24 0 0 1 9.296 8.37l2.265 4.082 1.248 2.367a5.16 5.16 0 0 1-2.734 7.23l-.052.02a5.27 5.27 0 0 1-3.819-.03l-1.026-.409a8.1 8.1 0 0 1-2.945-2.017l-1.088-1.171a15.2 15.2 0 0 1-2.742-4.149M10.19 28.953l.602-.983a1.66 1.66 0 0 1 1.937-.712l2.164.71a9.64 9.64 0 0 1 4.337 2.914l1.249 1.467a16.5 16.5 0 0 1 2.025 2.993l1.853 3.513c.418.793.737 1.635.95 2.506l.613 2.523a3.54 3.54 0 0 1-3.725 4.365l-.405-.033a4.1 4.1 0 0 1-1.523-.428l-2.908-1.466a13.6 13.6 0 0 1-2.15-1.35l-.412-.316a10.68 10.68 0 0 1-3.874-5.943l-.407-1.672-.648-2.662a8.7 8.7 0 0 1-.224-1.422l-.098-1.35a4.46 4.46 0 0 1 .644-2.654M5.375 50.89l.27-1.7a4.375 4.375 0 0 1 8.03-1.634l3.193 5.755 1.895 4.247a4.44 4.44 0 0 1 .113 3.336l-.303.826a2.788 2.788 0 0 1-4.413 1.17l-3.892-3.28a13 13 0 0 1-1.871-1.95l-1.924-2.483a5.57 5.57 0 0 1-1.098-4.288M1.666 32.689l1.645-2.687c.127-.208.448-.102.427.14l-.291 3.433a6.47 6.47 0 0 0 1.186 4.313l.761 1.064c.212.295.364.628.45.98l.099.405a2.167 2.167 0 0 1-4.02 1.523l-.45-.853a4.7 4.7 0 0 1-.406-1.07l-.326-1.339a7.8 7.8 0 0 1 .925-5.909M4.264 14.298l1.696-4.094a.22.22 0 0 1 .417.032l.25 1.027.326 2.538a9 9 0 0 0 2.067 4.677 9 9 0 0 1 1.295 2.015l.734 1.571.58 1.241a2.051 2.051 0 0 1-2.31 2.87l-.6-.135a3.3 3.3 0 0 1-1.608-.89l-.76-.766a7 7 0 0 1-1.466-2.173l-.58-1.354a8.44 8.44 0 0 1-.04-6.559M12.165 4.57l-1.267-3.326c-.112-.292.23-.546.478-.356a31 31 0 0 1 3.846 3.5l2.273 2.447 2.749 3.548c.47.606.673 1.377.563 2.136l-.03.21a2.513 2.513 0 0 1-4.018 1.634l-.945-.725a5 5 0 0 1-1.553-1.998l-.534-1.245a10 10 0 0 1-.534-1.603z"/></svg>
